public/img/import-icon.svg

<svg width="16" height="17" viewBox="0 0 16 17" fill="none" xmlns="http://www.w3.org/2000/svg">
<path d="M10.7084 0.0448818C9.9412 0.184511 9.24707 0.493692 8.68578 0.949154C8.55958 1.04889 6.61334 2.82419 4.35823 4.88873L0.25985 8.64545L0.432553 8.83162C0.528869 8.93801 0.688287 9.10756 0.787924 9.21394L0.967269 9.40344L1.07355 9.31368C1.13665 9.26049 2.99653 7.55833 5.21179 5.53036C7.42704 3.49907 9.32346 1.77696 9.42641 1.7005C10.4427 0.932531 11.8974 0.809525 13.0499 1.39132C13.8768 1.81021 14.5112 2.54825 14.8068 3.4359C15.1887 4.58952 14.9164 5.90603 14.0994 6.8369C13.9466 7.0131 4.73021 15.4541 4.55086 15.5804C4.18553 15.8431 3.73384 15.986 3.2722 15.986C2.89026 15.986 2.60795 15.9195 2.26587 15.75C1.17651 15.2114 0.718178 13.8616 1.25622 12.7778C1.32928 12.6316 1.44885 12.4387 1.52191 12.3523C1.5983 12.2625 3.65746 10.3576 6.09855 8.12017C9.37992 5.11479 10.5888 4.02767 10.715 3.96451C11.1202 3.76503 11.655 3.91131 11.914 4.29363C12.0535 4.49643 12.0967 4.65601 12.0801 4.92862C12.0701 5.12809 12.0502 5.20123 11.9705 5.33421C11.8974 5.45057 10.7582 6.51442 7.94515 9.08761C5.78636 11.0624 4.01947 12.6947 4.01947 12.7114C4.01615 12.7546 4.63389 13.4394 4.69036 13.4527C4.73353 13.4627 12.3092 6.54767 12.6115 6.21854C12.9901 5.81295 13.1927 5.17796 13.1229 4.62941C13.0532 4.10081 12.8738 3.74509 12.4952 3.38604C11.7181 2.64467 10.5423 2.64799 9.71204 3.39269C8.23742 4.71585 0.854348 11.5145 0.731463 11.6641C0.389377 12.0764 0.156892 12.5684 0.0439706 13.1302C-0.0324175 13.5092 -0.00584771 14.2639 0.0971101 14.623C0.362808 15.5538 1.0038 16.3118 1.86732 16.7174C2.37215 16.9535 2.59135 17 3.25227 17C3.75377 17 3.87334 16.99 4.11579 16.9235C4.47116 16.8271 5.00255 16.5645 5.26161 16.3584C5.54723 16.1256 14.5577 7.87416 14.7736 7.64809C15.3349 7.04967 15.7367 6.2817 15.9227 5.46055C16.0091 5.0882 16.0257 4.1939 15.9593 3.78166C15.6437 1.86008 14.1459 0.357388 12.2362 0.0448818C11.8708 -0.0149612 11.0339 -0.0149612 10.7084 0.0448818Z" fill="#414141"/>
</svg>

<svg width="16" height="17" fill="none" xmlns="http://www.w3.org/2000/svg"><path d="M10.708.045a4.462 4.462 0 00-2.022.904c-.126.1-2.073 1.875-4.328 3.94L.26 8.645l.173.187c.096.106.255.276.355.382l.18.19.106-.09c.063-.054 1.923-1.756 4.138-3.784C7.427 3.5 9.323 1.777 9.426 1.7c1.017-.767 2.471-.89 3.624-.309a3.552 3.552 0 011.757 2.045c.382 1.154.11 2.47-.708 3.4-.152.177-9.369 8.618-9.548 8.744a2.198 2.198 0 01-1.279.406c-.382 0-.664-.067-1.006-.236-1.09-.539-1.548-1.888-1.01-2.972a2.64 2.64 0 01.266-.426c.076-.09 2.135-1.994 4.577-4.232 3.28-3.005 4.49-4.092 4.616-4.155.405-.2.94-.054 1.199.329.14.202.183.362.166.635-.01.2-.03.272-.11.405-.073.117-1.212 1.18-4.025 3.754-2.159 1.974-3.926 3.607-3.926 3.623-.003.044.615.728.671.742.044.01 7.62-6.905 7.921-7.234.38-.406.582-1.041.512-1.59-.07-.528-.25-.884-.628-1.243-.777-.741-1.953-.738-2.783.007C8.237 4.716.854 11.515.732 11.664a3.276 3.276 0 00-.688 1.466c-.076.38-.05 1.134.053 1.493a3.3 3.3 0 001.77 2.094c.505.236.724.283 1.385.283.502 0 .621-.01.864-.076.355-.097.887-.36 1.146-.566.285-.232 9.296-8.484 9.512-8.71a4.751 4.751 0 001.149-2.187c.086-.373.103-1.267.036-1.68A4.52 4.52 0 0012.236.046c-.365-.06-1.202-.06-1.528 0z" fill="#414141"/></svg>
